FINK
CUT[WELLE GROSS WUNDER SCHAUEN WILL]
REG[Europa, Mitteleuropa, Deutschland]
KEY[F0888  08  C 3/4]
MEL[-5  1-71_2_  -7-6-5_
    1_  55431_  1_2_0
    1  345_1_  234_
    2_  312_1_  -7_1_0 //] >>
FCT[erzaehlendes Volks - Lied, Ballade, Tannhaeuser]
